blockchains/ethereum/assets/0x1a986F1659e11E2AE7CC6543F307bAE5cDe1C761/logo.svg

<svg fill="none" height="250" viewBox="0 0 250 250" width="250" xmlns="http://www.w3.org/2000/svg" xmlns:xlink="http://www.w3.org/1999/xlink"><clipPath id="a"><path d="m0 0h250v250h-250z"/></clipPath><g clip-path="url(#a)"><circle cx="125" cy="125" fill="#ff007a" r="125"/><g fill="#fff"><path d="m96.648 54.7246c-2.1077-.3033-2.2081-.4044-1.2044-.5055 1.907-.3033 6.3234.1011 9.4344.8088 7.227 1.7189 13.751 6.1676 20.676 13.9528l1.807 2.1233 2.609-.4044c11.141-1.82 22.583-.4045 32.118 4.0443 2.609 1.2132 6.724 3.6398 7.226 4.2465.201.2022.502 1.5166.703 2.831.702 4.752.401 8.2908-1.104 11.0207-.803 1.5166-.803 1.921-.301 3.2354.401 1.0111 1.606 1.7188 2.71 1.7188 2.408 0 4.918-3.8421 6.122-9.2007l.502-2.1233.903 1.0111c5.119 5.7631 9.134 13.7506 9.736 19.4126l.201 1.517-.904-1.315c-1.505-2.325-2.91-3.842-4.817-5.156-3.413-2.3258-7.026-3.0335-16.561-3.539-8.632-.5056-13.55-1.2133-18.367-2.831-8.23-2.7299-12.446-6.2687-22.182-19.3115-4.315-5.7631-7.025-8.8975-9.735-11.5263-5.922-5.7631-11.844-8.7963-19.572-10.0096z"/><path d="m171.422 67.5625c.2-3.8421.702-6.3698 1.806-8.6952.402-.91.803-1.7189.904-1.7189.1 0-.101.7078-.402 1.5166-.803 2.2244-.903 5.3587-.401 8.8975.702 4.5498 1.003 5.1565 5.821 10.1107 2.208 2.3255 4.818 5.2576 5.821 6.4709l1.707 2.2244-1.707-1.6178c-2.107-2.0221-6.925-5.8642-8.029-6.3697-.703-.4045-.803-.4045-1.305.1011-.401.4044-.502 1.0111-.502 3.9432-.1 4.5498-.702 7.3808-2.208 10.3129-.803 1.5166-.903 1.2133-.2-.5055.501-1.3144.602-1.9211.602-6.2687 0-8.7963-1.004-10.9196-7.126-14.4583-1.506-.91-4.115-2.2244-5.621-2.9321-1.606-.7078-2.81-1.3144-2.71-1.3144.201-.2022 6.122 1.5166 8.431 2.5277 3.513 1.4155 4.115 1.5166 4.517 1.4155.301-.3034.501-1.1122.602-3.6399z"/><path d="m100.763 82.6269c-4.2151-5.8642-6.925-14.9638-6.3228-21.738l.2008-2.1233 1.0036.2022c1.8067.3034 4.9184 1.5167 6.4234 2.4266 4.015 2.4266 5.821 5.7631 7.528 14.0539.502 2.4266 1.204 5.2576 1.505 6.1676.502 1.5166 2.409 5.0553 4.015 7.2797 1.104 1.6177.401 2.4266-2.108 2.2244-3.814-.4045-8.932-3.9432-12.245-8.4931z"/><path d="m166.303 126.607c-19.873-8.089-26.899-15.065-26.899-26.8946 0-1.7188.101-3.1343.101-3.1343.1 0 .803.6067 1.706 1.3144 4.015 3.2355 8.531 4.6505 21.077 6.4705 7.327 1.113 11.542 1.921 15.356 3.236 12.145 4.044 19.673 12.335 21.479 23.558.502 3.235.201 9.403-.602 12.638-.703 2.528-2.71 7.179-3.212 7.28-.1 0-.301-.506-.301-1.314-.201-4.247-2.308-8.291-5.821-11.426-4.216-3.639-9.636-6.369-22.884-11.728z"/><path d="m152.252 129.951c-.201-1.517-.703-3.438-1.004-4.247l-.502-1.516.904 1.112c1.304 1.516 2.308 3.336 3.211 5.864.703 1.921.703 2.528.703 5.662 0 3.033-.101 3.741-.703 5.46-1.003 2.73-2.208 4.651-4.215 6.774-3.613 3.741-8.331 5.763-15.055 6.673-1.205.101-4.617.404-7.628.607-7.528.404-12.546 1.213-17.063 2.831-.602.202-1.204.404-1.305.303-.2-.202 2.911-2.022 5.42-3.235 3.513-1.719 7.126-2.629 15.055-4.045 3.915-.606 7.929-1.415 8.933-1.82 9.937-3.134 14.855-10.919 13.249-20.423z"/><path d="m161.386 146.226c-2.61-5.763-3.212-11.223-1.807-16.379.201-.506.402-1.011.602-1.011.201 0 .803.303 1.406.708 1.204.809 3.713 2.224 10.137 5.763 8.13 4.449 12.746 7.886 15.958 11.829 2.811 3.438 4.517 7.381 5.32 12.234.502 2.73.2 9.302-.502 12.032-2.208 8.594-7.227 15.47-14.553 19.413-1.104.606-2.008 1.011-2.108 1.011-.101 0 .301-1.011.903-2.225 2.409-5.156 2.71-10.11.903-15.671-1.104-3.438-3.412-7.583-8.029-14.56-5.52-8.088-6.825-10.211-8.23-13.144z"/><path d="m86.6109 177.167c7.4272-6.269 16.5611-10.717 24.9911-12.133 3.614-.606 9.636-.404 12.948.506 5.319 1.415 10.137 4.449 12.646 8.189 2.409 3.64 3.513 6.775 4.617 13.751.402 2.73.903 5.561 1.004 6.168.803 3.639 2.409 6.47 4.416 7.987 3.111 2.326 8.531 2.427 13.851.405.903-.304 1.706-.607 1.706-.506.201.202-2.509 2.022-4.316 2.932-2.509 1.314-4.516 1.719-7.226 1.719-4.818 0-8.933-2.528-12.245-7.583-.703-1.011-2.108-3.943-3.312-6.673-3.513-8.19-5.32-10.616-9.435-13.346-3.613-2.326-8.23-2.831-11.743-1.113-4.617 2.225-5.821 8.19-2.609 11.83 1.304 1.517 3.713 2.73 5.721 3.033 3.713.506 6.925-2.426 6.925-6.167 0-2.427-.903-3.842-3.312-4.955-3.212-1.415-6.725.203-6.625 3.337 0 1.314.603 2.123 1.907 2.73.803.404.803.404.201.303-2.91-.606-3.613-4.246-1.305-6.572 2.811-2.831 8.732-1.618 10.74 2.326.803 1.617.903 4.853.201 6.875-1.707 4.449-6.524 6.774-11.442 5.46-3.313-.91-4.718-1.82-8.732-5.966-7.0261-7.279-9.7361-8.695-19.7728-10.211l-1.907-.304z"/><g clip-rule="evenodd" fill-rule="evenodd"><path d="m49.02 33.0664c23.3857 28.6133 44.2129 54.5195 46.0195 56.946 1.5055 2.0222.9033 3.9432-1.6059 5.3587-1.4051.8089-4.3158 1.6177-5.7209 1.6177-1.6059 0-3.5129-.8088-4.8177-2.1232-.9033-.91-4.8176-6.6731-13.65-20.5248-6.7246-10.6163-12.4456-19.4126-12.546-19.5137-.4014-.2022-.4014-.2022 11.8434 21.8392 7.7283 13.8517 10.2375 18.8059 10.2375 19.4126 0 1.3144-.4014 2.0221-2.0073 3.842-2.7099 3.0331-3.9144 6.4711-4.8177 13.6491-1.0037 7.988-3.7136 13.65-11.4419 23.255-4.5165 5.662-5.2191 6.673-6.3232 8.999-1.4051 2.831-1.8066 4.448-2.0073 8.088-.2008 3.842.2007 6.269 1.3048 9.909 1.0036 3.235 2.1077 5.358 4.8176 9.504 2.3085 3.64 3.7136 6.37 3.7136 7.381 0 .808.2007.808 3.814 0 8.6316-2.023 15.7577-5.46 19.6721-9.707 2.4088-2.628 3.011-4.044 3.011-7.684 0-2.325-.1004-2.831-.7026-4.246-1.0036-2.225-2.9106-4.045-7.0257-6.876-5.4199-3.741-7.7283-6.774-8.3305-10.818-.5019-3.438.1003-5.763 3.1114-12.133 3.1114-6.572 3.9143-9.302 4.4161-15.975.3011-4.246.803-5.965 2.0074-7.28 1.3048-1.415 2.4088-1.921 5.5202-2.325 5.1188-.708 8.4309-2.022 11.0405-4.5499 2.3086-2.1233 3.3126-4.2465 3.4126-7.3809l.1-2.3254-1.305-1.4155c-4.7168-5.4598-54.8514-59.2715-55.1525-59.2715-.1004 0 1.5055 1.921 3.4125 4.3476zm15.6081 125.1936c1.104-1.921.5018-4.348-1.3048-5.561-1.7063-1.112-4.3158-.607-4.3158.91 0 .404.2007.809.8029 1.011.9033.505 1.0037 1.011.3011 2.123-.7025 1.112-.7025 2.123.2008 2.831 1.4051 1.112 3.3121.506 4.3158-1.314z"/><path d="m105.28 105.075c-2.409.708-4.717 3.337-5.4196 5.966-.4015 1.617-.2008 4.549.5016 5.459 1.104 1.416 2.108 1.82 4.918 1.82 5.52 0 10.238-2.426 10.74-5.358.501-2.427-1.606-5.763-4.517-7.28-1.505-.809-4.617-1.112-6.223-.607zm6.424 5.056c.803-1.214.502-2.528-1.004-3.438-2.71-1.719-6.825-.303-6.825 2.325 0 1.315 2.108 2.73 4.115 2.73 1.305 0 3.112-.808 3.714-1.617z"/></g></g></g></svg>

<svg width="250" height="250" viewBox="0 0 250 250" fill="none" xmlns="http://www.w3.org/2000/svg">
<g clip-path="url(#clip0_37_34107)">
<circle cx="125" cy="125" r="125" fill="#FF007A"/>
<path d="M96.648 54.7246C94.5403 54.4213 94.4399 54.3202 95.4436 54.2191C97.3506 53.9158 101.767 54.3202 104.878 55.0279C112.105 56.7468 118.629 61.1955 125.554 68.9807L127.361 71.104L129.97 70.6996C141.111 68.8796 152.553 70.2951 162.088 74.7439C164.697 75.9571 168.812 78.3837 169.314 78.9904C169.515 79.1926 169.816 80.507 170.017 81.8214C170.719 86.5734 170.418 90.1122 168.913 92.8421C168.11 94.3587 168.11 94.7631 168.612 96.0775C169.013 97.0886 170.218 97.7963 171.322 97.7963C173.73 97.7963 176.24 93.9542 177.444 88.5956L177.946 86.4723L178.849 87.4834C183.968 93.2465 187.983 101.234 188.585 106.896L188.786 108.413L187.882 107.098C186.377 104.773 184.972 103.256 183.065 101.942C179.652 99.6162 176.039 98.9085 166.504 98.403C157.872 97.8974 152.954 97.1897 148.137 95.572C139.907 92.8421 135.691 89.3033 125.955 76.2605C121.64 70.4974 118.93 67.363 116.22 64.7342C110.298 58.9711 104.376 55.9379 96.648 54.7246Z" fill="white"/>
<path d="M171.422 67.5625C171.622 63.7204 172.124 61.1927 173.228 58.8673C173.63 57.9573 174.031 57.1484 174.132 57.1484C174.232 57.1484 174.031 57.8562 173.73 58.665C172.927 60.8894 172.827 64.0237 173.329 67.5625C174.031 72.1123 174.332 72.719 179.15 77.6732C181.358 79.9987 183.968 82.9308 184.971 84.1441L186.678 86.3685L184.971 84.7507C182.864 82.7286 178.046 78.8865 176.942 78.381C176.239 77.9765 176.139 77.9765 175.637 78.4821C175.236 78.8865 175.135 79.4932 175.135 82.4253C175.035 86.9751 174.433 89.8061 172.927 92.7382C172.124 94.2548 172.024 93.9515 172.727 92.2327C173.228 90.9183 173.329 90.3116 173.329 85.964C173.329 77.1677 172.325 75.0444 166.203 71.5057C164.697 70.5957 162.088 69.2813 160.582 68.5736C158.976 67.8658 157.772 67.2592 157.872 67.2592C158.073 67.057 163.994 68.7758 166.303 69.7869C169.816 71.2024 170.418 71.3035 170.82 71.2024C171.121 70.899 171.321 70.0902 171.422 67.5625Z" fill="white"/>
<path d="M100.763 82.6269C96.5479 76.7627 93.838 67.6631 94.4402 60.8889L94.641 58.7656L95.6446 58.9678C97.4513 59.2712 100.563 60.4845 102.068 61.3944C106.083 63.821 107.889 67.1575 109.596 75.4483C110.098 77.8749 110.8 80.7059 111.101 81.6159C111.603 83.1325 113.51 86.6712 115.116 88.8956C116.22 90.5133 115.517 91.3222 113.008 91.12C109.194 90.7155 104.076 87.1768 100.763 82.6269Z" fill="white"/>
<path d="M166.303 126.607C146.43 118.518 139.404 111.542 139.404 99.7124C139.404 97.9936 139.505 96.5781 139.505 96.5781C139.605 96.5781 140.308 97.1848 141.211 97.8925C145.226 101.128 149.742 102.543 162.288 104.363C169.615 105.476 173.83 106.284 177.644 107.599C189.789 111.643 197.317 119.934 199.123 131.157C199.625 134.392 199.324 140.56 198.521 143.795C197.818 146.323 195.811 150.974 195.309 151.075C195.209 151.075 195.008 150.569 195.008 149.761C194.807 145.514 192.7 141.47 189.187 138.335C184.971 134.696 179.551 131.966 166.303 126.607Z" fill="white"/>
<path d="M152.252 129.951C152.051 128.434 151.549 126.513 151.248 125.704L150.746 124.188L151.65 125.3C152.954 126.816 153.958 128.636 154.861 131.164C155.564 133.085 155.564 133.692 155.564 136.826C155.564 139.859 155.463 140.567 154.861 142.286C153.858 145.016 152.653 146.937 150.646 149.06C147.033 152.801 142.315 154.823 135.591 155.733C134.386 155.834 130.974 156.137 127.963 156.34C120.435 156.744 115.417 157.553 110.9 159.171C110.298 159.373 109.696 159.575 109.595 159.474C109.395 159.272 112.506 157.452 115.015 156.239C118.528 154.52 122.141 153.61 130.07 152.194C133.985 151.588 137.999 150.779 139.003 150.374C148.94 147.24 153.858 139.455 152.252 129.951Z" fill="white"/>
<path d="M161.386 146.226C158.776 140.463 158.174 135.003 159.579 129.847C159.78 129.341 159.981 128.836 160.181 128.836C160.382 128.836 160.984 129.139 161.587 129.544C162.791 130.353 165.3 131.768 171.724 135.307C179.854 139.756 184.47 143.193 187.682 147.136C190.493 150.574 192.199 154.517 193.002 159.37C193.504 162.1 193.202 168.672 192.5 171.402C190.292 179.996 185.273 186.872 177.947 190.815C176.843 191.421 175.939 191.826 175.839 191.826C175.738 191.826 176.14 190.815 176.742 189.601C179.151 184.445 179.452 179.491 177.645 173.93C176.541 170.492 174.233 166.347 169.616 159.37C164.096 151.282 162.791 149.159 161.386 146.226Z" fill="white"/>
<path d="M86.6109 177.167C94.0381 170.898 103.172 166.45 111.602 165.034C115.216 164.428 121.238 164.63 124.55 165.54C129.869 166.955 134.687 169.989 137.196 173.729C139.605 177.369 140.709 180.504 141.813 187.48C142.215 190.21 142.716 193.041 142.817 193.648C143.62 197.287 145.226 200.118 147.233 201.635C150.344 203.961 155.764 204.062 161.084 202.04C161.987 201.736 162.79 201.433 162.79 201.534C162.991 201.736 160.281 203.556 158.474 204.466C155.965 205.78 153.958 206.185 151.248 206.185C146.43 206.185 142.315 203.657 139.003 198.602C138.3 197.591 136.895 194.659 135.691 191.929C132.178 183.739 130.371 181.313 126.256 178.583C122.643 176.257 118.026 175.752 114.513 177.47C109.896 179.695 108.692 185.66 111.904 189.3C113.208 190.817 115.617 192.03 117.625 192.333C121.338 192.839 124.55 189.907 124.55 186.166C124.55 183.739 123.647 182.324 121.238 181.211C118.026 179.796 114.513 181.414 114.613 184.548C114.613 185.862 115.216 186.671 116.52 187.278C117.323 187.682 117.323 187.682 116.721 187.581C113.811 186.975 113.108 183.335 115.416 181.009C118.227 178.178 124.148 179.391 126.156 183.335C126.959 184.952 127.059 188.188 126.357 190.21C124.65 194.659 119.833 196.984 114.915 195.67C111.602 194.76 110.197 193.85 106.183 189.704C99.1569 182.425 96.4469 181.009 86.4102 179.493L84.5032 179.189L86.6109 177.167Z" fill="white"/>
<path fill-rule="evenodd" clip-rule="evenodd" d="M49.02 33.0664C72.4057 61.6797 93.2329 87.5859 95.0395 90.0124C96.545 92.0346 95.9428 93.9556 93.4336 95.3711C92.0285 96.18 89.1178 96.9888 87.7127 96.9888C86.1068 96.9888 84.1998 96.18 82.895 94.8656C81.9917 93.9556 78.0774 88.1925 69.245 74.3408C62.5204 63.7245 56.7994 54.9282 56.699 54.8271C56.2976 54.6249 56.2976 54.6249 68.5424 76.6663C76.2707 90.518 78.7799 95.4722 78.7799 96.0789C78.7799 97.3933 78.3785 98.101 76.7726 99.9209C74.0627 102.954 72.8582 106.392 71.9549 113.57C70.9512 121.558 68.2413 127.22 60.513 136.825C55.9965 142.487 55.2939 143.498 54.1898 145.824C52.7847 148.655 52.3832 150.272 52.1825 153.912C51.9817 157.754 52.3832 160.181 53.4873 163.821C54.4909 167.056 55.595 169.179 58.3049 173.325C60.6134 176.965 62.0185 179.695 62.0185 180.706C62.0185 181.514 62.2192 181.514 65.8325 180.706C74.4641 178.683 81.5902 175.246 85.5046 170.999C87.9134 168.371 88.5156 166.955 88.5156 163.315C88.5156 160.99 88.4152 160.484 87.813 159.069C86.8094 156.844 84.9024 155.024 80.7873 152.193C75.3674 148.452 73.059 145.419 72.4568 141.375C71.9549 137.937 72.5571 135.612 75.5682 129.242C78.6796 122.67 79.4825 119.94 79.9843 113.267C80.2854 109.021 80.7873 107.302 81.9917 105.987C83.2965 104.572 84.4005 104.066 87.5119 103.662C92.6307 102.954 95.9428 101.64 98.5524 99.1121C100.861 96.9888 101.865 94.8656 101.965 91.7312L102.065 89.4058L100.76 87.9903C96.0432 82.5305 45.9086 28.7188 45.6075 28.7188C45.5071 28.7188 47.113 30.6398 49.02 33.0664ZM64.6281 158.26C65.7321 156.339 65.1299 153.912 63.3233 152.699C61.617 151.587 59.0075 152.092 59.0075 153.609C59.0075 154.013 59.2082 154.418 59.8104 154.62C60.7137 155.125 60.8141 155.631 60.1115 156.743C59.409 157.855 59.409 158.866 60.3123 159.574C61.7174 160.686 63.6244 160.08 64.6281 158.26Z" fill="white"/>
<path fill-rule="evenodd" clip-rule="evenodd" d="M105.28 105.075C102.871 105.783 100.563 108.412 99.8604 111.041C99.4589 112.658 99.6596 115.59 100.362 116.5C101.466 117.916 102.47 118.32 105.28 118.32C110.8 118.32 115.518 115.894 116.02 112.962C116.521 110.535 114.414 107.199 111.503 105.682C109.998 104.873 106.886 104.57 105.28 105.075ZM111.704 110.131C112.507 108.917 112.206 107.603 110.7 106.693C107.99 104.974 103.875 106.39 103.875 109.018C103.875 110.333 105.983 111.748 107.99 111.748C109.295 111.748 111.102 110.94 111.704 110.131Z" fill="white"/>
</g>
<defs>
<clipPath id="clip0_37_34107">
<rect width="250" height="250" fill="white"/>
</clipPath>
</defs>
</svg>
